!!!OTL: Auf dem Berge
!!!OTL-incipit: Uebers Bacherl bin i gschprunga, uebers Wieserl bin i g'rennt
!!!ARE: Europa, Mitteleuropa, Deutschland, Bayern
!!!SCT: D0242
!!!TXL: @@BAR
!!!YEM: Copyright 1995, estate of Helmut Schaffrath.
**kern	**text
*ICvox	*
*M3/4	*
*k[f#c#]	*
*D:	*
{8f#	Über's
8g	.
=1	=1
4a	Bacherl
4a	.
8f#	bin
8g	ih
=2	=2
4a	gsprunda,
4a}	.
{8ff#	über's
8dd	.
=3	=3
4cc#	Wieserl
4cc#	.
8b	bin
8g	ih
=4	=4
4f#	gren'
4r}	.
{8e	Und
8f#	do
=5	=5
8gL	hot
8bJ	.
4b	mih
8a	mei
8g	liabs
=6	=6
8f#L	Dirnderl
8aJ	.
4dd}	.
{8a	af
8dd	mein
=7	=7
4cc#	Juchatzer
8cc#	.
8cc#	.
8b	gleih
8g	derkennt.
=8	=8
2f#}	.
{8e	Und
8f#	do
=9	=9
8gL	hot
8bJ	.
4b	mih
8a	mei
8g	liabs
=10	=10
8f#L	Dirnderl
8aJ	.
4dd}	.
{8a	af
8dd	mein
=11	=11
4cc#	Juchatzer
8cc#	.
8cc#	.
8b	gleih
8g	derkennt.
=12	=12
2f#}	.
{8ff#	Holla
8dd	.
=13	=13
8dd	retuljo
8a	.
4a	.
8f#	holla
8a	.
=14	=14
8eL	rei-
8aJ	.
4a}	-jo
{8gg	holla
8cc#	.
=15	=15
8cc#	retuljo
8a	.
4a	.
8g	holla
8a	.
=16	=16
8f#L	rei-
8aJ	.
4a}	-jo
{8ff#	Holla
8dd	.
=17	=17
8dd	retuljo
8a	.
4a	.
8f#	holla
8a	.
=18	=18
8eL	rei-
8aJ	.
4a}	-jo
{8gg	holla
8cc#	.
=19	=19
8cc#	retuljo
8a	.
8a	jo
8a	di
8b	ria
8cc#	.
=20	=20
2dd}	ho.
==	==
!!!AGN: Liebes - Lied
!! Inzipit = Transposition
!!!ONB: ESAC (Essen Associative Code) Database: DVA
!!!AMT: simple triple
!!!AIN: vox
!!!EED: Helmut Schaffrath
!!!EEV: 1.0
!!!YOR: https://freidok.uni-freiburg.de/data/150373
!!!EFL: A197693
!!!ENC: Anna Maria Matuszewska
!!!EEV: 2025/06/04
*-	*-
